Flat-Remix-Light/panel/weather-showers.svg

<svg xmlns="http://www.w3.org/2000/svg" width="24" height="24" version="1.1">
 <defs>
  <style id="current-color-scheme" type="text/css">
   .ColorScheme-Text { color:#31363b; } .ColorScheme-Highlight { color:#3daee9; }
  </style>
 </defs>
 <g transform="translate(-128.00001,-680.28999)">
  <path style="fill:currentColor" class="ColorScheme-Text" d="m 11,3.0039062 c -2.07107,0 -3.83471,1.2679201 -4.59375,3.0625 C 4.47842,6.3530063 3,7.9963263 3,10.003906 c 0,2.20914 1.79086,4 4,4 l 8.5,0 c 1.933,0 3.5,-1.567 3.5,-3.5 C 19,8.7073662 17.64921,7.2352063 15.90625,7.0351562 15.45168,4.7417662 13.42687,3.0039062 11,3.0039062 Z M 5.9785156,14.994141 a 0.50005,0.50005 0 0 0 -0.4257812,0.283203 l -1,2 a 0.50006306,0.50006306 0 1 0 0.8945312,0.447265 l 1,-2 a 0.50005,0.50005 0 0 0 -0.46875,-0.730468 z m 2.5,0 a 0.50005,0.50005 0 0 0 -0.4257812,0.283203 l -1,2 a 0.50006306,0.50006306 0 1 0 0.8945312,0.447265 l 1,-2 a 0.50005,0.50005 0 0 0 -0.46875,-0.730468 z m 2.5000004,0 a 0.50005,0.50005 0 0 0 -0.425782,0.283203 l -0.9999996,2 a 0.50006306,0.50006306 0 1 0 0.8945316,0.447265 l 1,-2 a 0.50005,0.50005 0 0 0 -0.46875,-0.730468 z m 2.5,0 a 0.50005,0.50005 0 0 0 -0.425782,0.283203 l -1,2 a 0.50006306,0.50006306 0 1 0 0.894532,0.447265 l 1,-2 a 0.50005,0.50005 0 0 0 -0.46875,-0.730468 z m 2.5,0 a 0.50005,0.50005 0 0 0 -0.425782,0.283203 l -1,2 a 0.50006306,0.50006306 0 1 0 0.894532,0.447265 l 1,-2 a 0.50005,0.50005 0 0 0 -0.46875,-0.730468 z" transform="translate(129.00001,681.28994)"/>
 </g>
</svg>

<svg xmlns="http://www.w3.org/2000/svg" width="22" height="22" version="1.1">
 <defs>
  <style id="current-color-scheme" type="text/css">
   .ColorScheme-Text { color:#31363b; } .ColorScheme-Highlight { color:#3daee9; }
  </style>
 </defs>
 <g transform="translate(-129.00001,-681.28994)">
  <path style="fill:currentColor" class="ColorScheme-Text" d="M 11 3.0039062 C 8.92893 3.0039062 7.16529 4.2718263 6.40625 6.0664062 C 4.47842 6.3530063 3 7.9963263 3 10.003906 C 3 12.213046 4.79086 14.003906 7 14.003906 L 15.5 14.003906 C 17.433 14.003906 19 12.436906 19 10.503906 C 19 8.7073662 17.64921 7.2352063 15.90625 7.0351562 C 15.45168 4.7417662 13.42687 3.0039062 11 3.0039062 z M 5.9785156 14.994141 A 0.50005 0.50005 0 0 0 5.5527344 15.277344 L 4.5527344 17.277344 A 0.50006306 0.50006306 0 1 0 5.4472656 17.724609 L 6.4472656 15.724609 A 0.50005 0.50005 0 0 0 5.9785156 14.994141 z M 8.4785156 14.994141 A 0.50005 0.50005 0 0 0 8.0527344 15.277344 L 7.0527344 17.277344 A 0.50006306 0.50006306 0 1 0 7.9472656 17.724609 L 8.9472656 15.724609 A 0.50005 0.50005 0 0 0 8.4785156 14.994141 z M 10.978516 14.994141 A 0.50005 0.50005 0 0 0 10.552734 15.277344 L 9.5527344 17.277344 A 0.50006306 0.50006306 0 1 0 10.447266 17.724609 L 11.447266 15.724609 A 0.50005 0.50005 0 0 0 10.978516 14.994141 z M 13.478516 14.994141 A 0.50005 0.50005 0 0 0 13.052734 15.277344 L 12.052734 17.277344 A 0.50006306 0.50006306 0 1 0 12.947266 17.724609 L 13.947266 15.724609 A 0.50005 0.50005 0 0 0 13.478516 14.994141 z M 15.978516 14.994141 A 0.50005 0.50005 0 0 0 15.552734 15.277344 L 14.552734 17.277344 A 0.50006306 0.50006306 0 1 0 15.447266 17.724609 L 16.447266 15.724609 A 0.50005 0.50005 0 0 0 15.978516 14.994141 z" transform="translate(129.00001,681.28994)"/>
 </g>
</svg>
